symbolic/32x32/apps/catfish.svg

<svg xmlns="http://www.w3.org/2000/svg" width="32" height="32" version="1.1">
 <path style="opacity:0.2" d="M 2.1796875,6.0001939 C 1.443254,10.531473 3.1177433,14.177074 4.3027344,15.849803 4.0063221,17.152932 4,18.407425 4,19.394725 4.0556509,22.413561 12.4298,31.212256 16.123047,30.992382 19.543055,31.291573 27.827087,22.697529 28,19.394725 c 0,-0.933548 -0.08545,-2.141727 -0.419922,-3.408203 l 0.01563,0.01367 C 28.783189,14.395231 30.57714,10.656958 29.820312,6.0001939 26.192029,6.1026431 23.061728,7.4570518 20.691406,9.2873033 19.414758,8.917842 17.940381,8.664769 16.183594,8.5998033 14.311285,8.7300248 12.757094,9.0071158 11.416016,9.3732408 9.033251,7.4998465 5.8639294,6.1042231 2.1796875,6.0001939 Z"/>
 <path style="fill:#d79f87" d="M 20,8.839286 C 22.435041,6.7304888 25.831067,5.1126165 29.819424,5.0000002 30.576252,9.6567638 28.783644,13.395037 27.596158,15"/>
 <path style="fill:#946e5d" d="M 21.500012,9.2315584 C 23.631838,7.7741664 25.725587,6.7365664 28.5,6.5000109 28.332476,11.289425 27.352161,11.914084 26.345426,13.5"/>
 <path style="fill:#d79f87" d="M 12,8.839286 C 9.5649588,6.7304888 6.1689325,5.1126165 2.1805759,5.0000002 1.4237483,9.6567638 3.2163563,13.395037 4.4038418,15"/>
 <path style="fill:#ffffff;opacity:0.2" d="M 2.1796875 5 C 2.0383761 5.8694899 2.0076994 6.6936477 2.0234375 7.4902344 C 2.0494395 7.0052931 2.0969937 6.5088156 2.1796875 6 C 5.8639294 6.1040292 9.0332506 7.4996526 11.416016 9.3730469 C 12.757094 9.0069219 14.311285 8.7298309 16.183594 8.5996094 C 17.940381 8.6645751 19.414758 8.9176481 20.691406 9.2871094 C 23.061728 7.4568579 26.19203 6.1024492 29.820312 6 C 29.902264 6.5042461 29.948466 6.9953976 29.974609 7.4765625 C 29.989686 6.6833404 29.960774 5.8642623 29.820312 5 C 26.19203 5.1024492 23.061728 6.4568579 20.691406 8.2871094 C 19.414758 7.9176481 17.940381 7.6645751 16.183594 7.5996094 C 14.311285 7.7298309 12.757094 8.0069219 11.416016 8.3730469 C 9.0332506 6.4996526 5.8639294 5.1040292 2.1796875 5 z M 4.1640625 15.632812 C 4.0123123 16.648636 4 17.607552 4 18.394531 C 4.0007107 18.433081 4.0180878 18.483033 4.0214844 18.523438 C 4.0384281 17.703584 4.0843619 16.809649 4.3027344 15.849609 C 4.2580035 15.786467 4.2100323 15.701518 4.1640625 15.632812 z M 27.751953 15.765625 C 27.700324 15.840238 27.645437 15.932782 27.595703 16 L 27.580078 15.986328 C 27.832382 16.941676 27.919868 17.822995 27.958984 18.619141 C 27.969405 18.54634 27.99642 18.462921 28 18.394531 C 28 17.655361 27.940291 16.741756 27.751953 15.765625 z"/>
 <path style="fill:#d79f87" d="M 3.9999999,18.395221 C 3.9999999,15 3.9667132,8.4497192 16.183673,7.6000137 27,8 28,15 28,18.395221 27.827087,21.698025 19.542456,30.291551 16.122448,29.992359 12.429201,30.212233 4.0556508,21.414057 3.9999999,18.395221 Z"/>
 <path style="fill:#946e5d" d="M 19.001339,23 A 3.0006695,2.9999999 0 1 1 13,23 a 3.0006695,2.9999999 0 1 1 6.001339,0 z"/>
 <path style="opacity:0.1" d="m 14.800001,20.08852 c 0,0 -6.4922444,-0.879326 -7.5771523,2.904901 C 6.4950426,25.532058 8.2633333,25.596608 8.520434,27.31311 8.777534,29.029616 6.8,28.593677 6.8,28.593677 l 0.1788533,0.381445 c 0,0 1.9328214,0.340578 1.9887127,-1.498534 C 9.023459,25.637477 7.1706306,24.805288 8.2437473,22.993421 9.316864,21.181557 13.310061,22.24376 13.310061,22.24376 Z"/>
 <path style="fill:#4a3025" d="m 14.800001,19.08852 c 0,0 -6.4922444,-0.879326 -7.5771523,2.904901 C 6.4950426,24.532058 8.2633333,24.596608 8.520434,26.31311 8.777534,28.029616 6.8,27.593677 6.8,27.593677 l 0.1788533,0.381445 c 0,0 1.9328214,0.340578 1.9887127,-1.498534 C 9.023459,24.637477 7.1706306,23.805288 8.2437473,21.993421 9.316864,20.181557 13.310061,21.24376 13.310061,21.24376 Z"/>
 <path style="fill:#946e5d" d="M 3.5 6.5 C 3.6675243 11.289414 4.6475618 11.914084 5.6542969 13.5 L 6.90625 12.398438 C 7.3079119 11.625297 7.9814318 11.024136 8.8085938 10.722656 L 10.5 9.2324219 C 8.3681744 7.7750299 6.2744127 6.7365555 3.5 6.5 z"/>
 <path style="opacity:0.2" d="m 9.143775,14.000569 c 0.939434,0.0081 1.620789,0.10207 2.167632,0.345033 0.729124,0.323948 1.191402,0.909526 1.677137,1.851937 a 0.11858327,0.10892333 0 0 1 -0.03381,0.13231 c -0.560658,0.40468 -1.084637,0.615103 -1.575703,0.660706 -0.491065,0.04561 -0.944652,-0.07623 -1.351992,-0.316525 -0.81468,-0.480588 -1.460298,-1.421752 -2.015714,-2.499881 a 0.11858327,0.10892333 0 0 1 0.102364,-0.155285 c 0.375048,-0.01397 0.716945,-0.021 1.03009,-0.01829 z"/>
 <path style="fill:#aef766" d="m 9.143775,13.000569 c 0.939434,0.0081 1.620789,0.10207 2.167632,0.345033 0.729124,0.323948 1.191402,0.909526 1.677137,1.851937 a 0.11858327,0.10892333 0 0 1 -0.03381,0.13231 c -0.560658,0.40468 -1.084637,0.615103 -1.575703,0.660706 -0.491065,0.04561 -0.944652,-0.07623 -1.351992,-0.316525 -0.81468,-0.480588 -1.460298,-1.421752 -2.015714,-2.499881 a 0.11858327,0.10892333 0 0 1 0.102364,-0.155285 c 0.375048,-0.01397 0.716945,-0.021 1.03009,-0.01829 z"/>
 <path style="opacity:0.1" d="m 10,10 c -2.7601378,0 -5.0003593,2.240665 -5,5 -6.394e-4,2.759574 2.2396856,5 5,5 2.760139,0 5.000359,-2.240668 5,-5 6.39e-4,-2.759574 -2.239685,-5 -5,-5 z m 0,1.5 c 1.932222,0 3.500447,1.568299 3.5,3.5 2.51e-4,1.931532 -1.567904,3.5 -3.5,3.5 C 8.0677802,18.5 6.4995527,16.931701 6.5,15 6.4997488,13.068466 8.0679036,11.5 10,11.5 Z"/>
 <path style="fill:#1b65cf" d="M 10 9 C 7.2398622 9 4.9996407 11.240665 5 14 C 4.9993606 16.759574 7.2396856 19 10 19 C 12.760139 19 15.000359 16.759332 15 14 C 15.000639 11.240426 12.760315 9 10 9 z M 10 10.5 C 11.932222 10.5 13.500447 12.068299 13.5 14 C 13.500251 15.931532 11.932096 17.5 10 17.5 C 8.0677802 17.5 6.4995527 15.931701 6.5 14 C 6.4997488 12.068466 8.0679036 10.5 10 10.5 z"/>
 <path style="opacity:0.1" d="m 17.2,20.08852 c 0,0 6.592541,-0.879326 7.677449,2.904901 0.727806,2.538637 -1.140781,2.603187 -1.397882,4.319689 -0.2571,1.716506 1.720434,1.280567 1.720434,1.280567 l -0.178853,0.381445 c 0,0 -1.932822,0.340578 -1.988713,-1.498534 -0.05589,-1.839111 1.897232,-2.6713 0.824116,-4.483167 C 22.783434,21.181557 18.68994,22.24376 18.68994,22.24376 Z"/>
 <path style="fill:#383838" d="m 19,21 a 3,2.9999999 0 1 1 -6,0 3,2.9999999 0 1 1 6,0 z"/>
 <path style="opacity:0.2" d="m 20.856222,14.000569 c -0.939434,0.0081 -1.620789,0.10207 -2.167632,0.345033 -0.729124,0.323948 -1.191402,0.909526 -1.677137,1.851937 a 0.11858327,0.10892333 0 0 0 0.03381,0.13231 c 0.560658,0.40468 1.084637,0.615103 1.575703,0.660706 0.491065,0.04561 0.944652,-0.07623 1.351992,-0.316525 0.81468,-0.480588 1.460298,-1.421752 2.015714,-2.499881 a 0.11858327,0.10892333 0 0 0 -0.102364,-0.155285 c -0.375048,-0.01397 -0.716945,-0.021 -1.03009,-0.01829 z"/>
 <path style="fill:#aef766" d="m 20.856222,13.000569 c -0.939434,0.0081 -1.620789,0.10207 -2.167632,0.345033 -0.729124,0.323948 -1.191402,0.909526 -1.677137,1.851937 a 0.11858327,0.10892333 0 0 0 0.03381,0.13231 c 0.560658,0.40468 1.084637,0.615103 1.575703,0.660706 0.491065,0.04561 0.944652,-0.07623 1.351992,-0.316525 0.81468,-0.480588 1.460298,-1.421752 2.015714,-2.499881 a 0.11858327,0.10892333 0 0 0 -0.102364,-0.155285 c -0.375048,-0.01397 -0.716945,-0.021 -1.03009,-0.01829 z"/>
 <path style="fill:#263742" d="m 19.02673,13.5 c -0.06762,0.996149 -0.0392,1.434505 0.473269,2 -0.03562,-0.919505 -0.05401,-1.365309 -0.473269,-2 z"/>
 <path style="opacity:0.1" d="M 29.973954,14.182889 A 11.575794,2.6919868 18.677517 1 1 8.026295,6.817366 11.575794,2.6919868 18.677517 1 1 29.973954,14.182889 Z"/>
 <path style="fill:#3f3f3f" d="M 29.973954,13.182804 A 11.575794,2.6919868 18.677517 1 1 8.026295,5.817281 11.575794,2.6919868 18.677517 1 1 29.973954,13.182804 Z"/>
 <path style="opacity:0.1" d="M 15.654296,3.0000854 C 18.172808,3.0888344 22.465837,3.8603414 26,6.2238207 L 24.189966,11.954746 C 20.45744,12.293757 16.152394,10.655071 14,8.6471288 Z"/>
 <path style="fill:#484848" d="M 15.654296,2.0000004 C 18.172808,2.0887494 22.465837,2.8602564 26,5.2237357 L 24.189966,10.954661 C 20.45744,11.293672 16.152394,9.654986 14,7.6470438 Z"/>
 <path style="opacity:0.2" d="m 15.735072,2.0041881 c 3.141803,2.6084362 8.162574,3.6649222 10.220447,3.3597467 l 0.04437,-0.1403519 C 22.501994,2.8843575 18.263521,2.1059906 15.735072,2.0041881 Z"/>
 <path style="fill:#1b65cf" d="m 4.9300469,13.61973 c -0.6587236,0.209043 -1.0717732,0.406517 -1.3097635,0.627539 -0.1189952,0.110511 -0.1972119,0.233683 -0.2160153,0.367772 -0.018803,0.13409 0.026046,0.264986 0.1039061,0.375977 0.1557192,0.22198 0.4375077,0.39889 0.797069,0.576951 0.3595614,0.178062 0.7988768,0.350105 1.2660137,0.520898 l 0.098437,-0.266601 C 5.2065516,15.652933 4.7746062,15.483144 4.4323915,15.313673 4.0901768,15.144202 3.838852,14.968388 3.7405957,14.828322 c -0.049128,-0.07003 -0.061965,-0.123105 -0.054687,-0.174999 0.00728,-0.0519 0.039582,-0.11692 0.1271482,-0.198242 0.1751319,-0.162646 0.5623297,-0.361295 1.2031231,-0.564648 z"/>
 <path style="opacity:0.1" d="m 16,22 a 3,3 0 1 1 -6,0 3,3 0 1 1 6,0 z"/>
 <path style="fill:#79503c" d="m 16,21 a 3,3 0 1 1 -6,0 3,3 0 1 1 6,0 z"/>
 <path style="opacity:0.2;fill:#ffffff" d="M 14.388787,6.319496 14,7.6465435 c 2.152394,2.0079423 6.457272,3.6478405 10.189798,3.3088295 L 24.559284,9.7835878 C 23.468779,9.8774873 20.792635,9.5110165 19.080423,9.0028859 17.24126,8.4570819 15.238236,7.3000445 14.388787,6.319496 Z"/>
 <path style="opacity:0.3;fill:#1b65cf" d="m 10,10.5 c 1.932221,0 3.500447,1.568299 3.5,3.5 2.51e-4,1.931532 -1.567903,3.5 -3.5,3.5 C 8.0677799,17.5 6.4995529,15.931701 6.5000002,14 6.4997489,12.068466 8.0679034,10.5 10,10.5 Z"/>
 <path style="fill:#263742" d="m 10.973267,13.5 c 0.06762,0.996149 0.0392,1.434505 -0.473269,2 0.03562,-0.919505 0.05401,-1.365309 0.473269,-2 z"/>
 <path style="fill:#4a3025" d="m 17.2,19.08852 c 0,0 6.592541,-0.879326 7.677449,2.904901 0.727806,2.538637 -1.140781,2.603187 -1.397882,4.319689 -0.2571,1.716506 1.720434,1.280567 1.720434,1.280567 l -0.178853,0.381445 c 0,0 -1.932822,0.340578 -1.988713,-1.498534 -0.05589,-1.839111 1.897232,-2.6713 0.824116,-4.483167 C 22.783434,20.181557 18.68994,21.24376 18.68994,21.24376 Z"/>
 <path style="opacity:0.1" d="m 22,22 a 3,3 0 1 1 -6,0 3,3 0 1 1 6,0 z"/>
 <path style="fill:#79503c" d="m 22,21 a 3,3 0 1 1 -6,0 3,3 0 1 1 6,0 z"/>
</svg>

<svg xmlns="http://www.w3.org/2000/svg" width="32" height="32"><path style="opacity:.2" d="M2.18 6c-.737 4.531.938 8.177 2.123 9.85C4.006 17.153 4 18.407 4 19.395c.056 3.019 8.43 11.817 12.123 11.597 3.42.3 11.704-8.294 11.877-11.597 0-.934-.085-2.142-.42-3.408l.016.013c1.187-1.605 2.981-5.343 2.224-10-3.628.103-6.758 1.457-9.129 3.287-1.276-.37-2.75-.622-4.507-.687-1.873.13-3.427.407-4.768.773C9.033 7.5 5.864 6.104 2.18 6z"/><path style="fill:#d79f87" d="M20 8.84c2.435-2.11 5.831-3.727 9.82-3.84.756 4.657-1.036 8.395-2.224 10"/><path style="fill:#946e5d" d="M21.5 9.232c2.132-1.458 4.226-2.495 7-2.732-.168 4.79-1.148 5.414-2.155 7"/><path style="fill:#d79f87" d="M12 8.84C9.565 6.73 6.169 5.112 2.18 5c-.756 4.657 1.036 8.395 2.224 10"/><path style="fill:#fff;opacity:.2" d="M2.18 5c-.142.87-.172 1.694-.157 2.49.026-.485.074-.981.157-1.49 3.684.104 6.853 1.5 9.236 3.373 1.341-.366 2.895-.643 4.768-.773 1.756.065 3.23.318 4.507.687 2.37-1.83 5.501-3.185 9.13-3.287.081.504.127.995.154 1.477A13.628 13.628 0 0 0 29.82 5c-3.628.102-6.758 1.457-9.129 3.287-1.276-.37-2.75-.622-4.507-.687-1.873.13-3.427.407-4.768.773C9.033 6.5 5.864 5.104 2.18 5zm1.984 10.633C4.012 16.649 4 17.608 4 18.395c0 .038.018.088.021.128.017-.82.063-1.713.282-2.673-.045-.064-.093-.148-.139-.217zm23.588.133c-.052.074-.107.167-.156.234l-.016-.014c.252.956.34 1.837.379 2.633.01-.073.037-.156.041-.224 0-.74-.06-1.653-.248-2.63z"/><path style="fill:#d79f87" d="M4 18.395C4 15 3.967 8.45 16.184 7.6 27 8 28 15 28 18.395c-.173 3.303-8.458 11.897-11.878 11.597C12.43 30.212 4.056 21.414 4 18.395z"/><path style="fill:#946e5d" d="M19.001 23A3 3 0 1 1 13 23a3 3 0 1 1 6.001 0z"/><path style="opacity:.1" d="M14.8 20.089s-6.492-.88-7.577 2.904c-.728 2.54 1.04 2.604 1.297 4.32.258 1.717-1.72 1.28-1.72 1.28l.179.382s1.933.34 1.989-1.498c.055-1.84-1.797-2.672-.724-4.484 1.073-1.811 5.066-.75 5.066-.75z"/><path style="fill:#4a3025" d="M14.8 19.089s-6.492-.88-7.577 2.904c-.728 2.54 1.04 2.604 1.297 4.32.258 1.717-1.72 1.28-1.72 1.28l.179.382s1.933.34 1.989-1.498c.055-1.84-1.797-2.672-.724-4.484 1.073-1.811 5.066-.75 5.066-.75z"/><path style="fill:#946e5d" d="M3.5 6.5c.168 4.79 1.148 5.414 2.154 7l1.252-1.102a3.492 3.492 0 0 1 1.903-1.675l1.691-1.49C8.368 7.774 6.274 6.736 3.5 6.5z"/><path style="opacity:.2" d="M9.144 14c.94.009 1.62.103 2.167.346.73.324 1.192.91 1.678 1.852a.119.109 0 0 1-.034.132c-.56.405-1.085.615-1.576.66a2.216 2.216 0 0 1-1.352-.316c-.815-.48-1.46-1.422-2.016-2.5a.119.109 0 0 1 .103-.155c.375-.014.717-.021 1.03-.018z"/><path style="fill:#aef766" d="M9.144 13c.94.009 1.62.103 2.167.346.73.324 1.192.91 1.678 1.852a.119.109 0 0 1-.034.132c-.56.405-1.085.615-1.576.66a2.216 2.216 0 0 1-1.352-.316c-.815-.48-1.46-1.422-2.016-2.5a.119.109 0 0 1 .103-.155c.375-.014.717-.021 1.03-.018z"/><path style="opacity:.1" d="M10 10c-2.76 0-5 2.24-5 5s2.24 5 5 5 5-2.24 5-5-2.24-5-5-5zm0 1.5a3.501 3.501 0 0 1 0 7 3.501 3.501 0 0 1 0-7z"/><path style="fill:#1b65cf" d="M10 9c-2.76 0-5 2.24-5 5s2.24 5 5 5 5-2.24 5-5-2.24-5-5-5zm0 1.5a3.501 3.501 0 0 1 0 7 3.501 3.501 0 0 1 0-7z"/><path style="opacity:.1" d="M17.2 20.089s6.593-.88 7.677 2.904c.728 2.54-1.14 2.604-1.397 4.32-.258 1.717 1.72 1.28 1.72 1.28l-.179.382s-1.933.34-1.989-1.498c-.055-1.84 1.898-2.672.825-4.484-1.074-1.811-5.167-.75-5.167-.75z"/><path style="fill:#383838" d="M19 21a3 3 0 1 1-6 0 3 3 0 1 1 6 0z"/><path style="opacity:.2" d="M20.856 14c-.94.009-1.62.103-2.167.346-.73.324-1.192.91-1.678 1.852a.119.109 0 0 0 .034.132c.56.405 1.085.615 1.576.66.491.046.945-.076 1.352-.316.815-.48 1.46-1.422 2.016-2.5a.119.109 0 0 0-.103-.155 22.668 22.668 0 0 0-1.03-.018z"/><path style="fill:#aef766" d="M20.856 13c-.94.009-1.62.103-2.167.346-.73.324-1.192.91-1.678 1.852a.119.109 0 0 0 .034.132c.56.405 1.085.615 1.576.66.491.046.945-.076 1.352-.316.815-.48 1.46-1.422 2.016-2.5a.119.109 0 0 0-.103-.155 22.668 22.668 0 0 0-1.03-.018z"/><path style="fill:#263742" d="M19.027 13.5c-.068.996-.04 1.435.473 2-.036-.92-.054-1.365-.473-2z"/><path style="opacity:.1" d="M29.974 14.183A11.576 2.692 18.678 1 1 8.026 6.817a11.576 2.692 18.678 1 1 21.948 7.366z"/><path style="fill:#3f3f3f" d="M29.974 13.183A11.576 2.692 18.678 1 1 8.026 5.817a11.576 2.692 18.678 1 1 21.948 7.366z"/><path style="opacity:.1" d="M15.654 3c2.519.089 6.812.86 10.346 3.224l-1.81 5.73c-3.733.34-8.038-1.299-10.19-3.307z"/><path style="fill:#484848" d="M15.654 2c2.519.089 6.812.86 10.346 3.224l-1.81 5.73c-3.733.34-8.038-1.299-10.19-3.307z"/><path style="opacity:.2" d="M15.735 2.004c3.142 2.609 8.163 3.665 10.22 3.36l.045-.14c-3.498-2.34-7.736-3.118-10.265-3.22z"/><path style="fill:#1b65cf" d="M4.93 13.62c-.659.209-1.072.406-1.31.627a.633.633 0 0 0-.216.368.53.53 0 0 0 .104.376c.156.222.438.399.797.577.36.178.8.35 1.266.52l.099-.266c-.463-.17-.895-.339-1.238-.508-.342-.17-.593-.346-.691-.486-.05-.07-.062-.123-.055-.175.007-.052.04-.117.127-.198.175-.163.562-.361 1.203-.565z"/><path style="opacity:.1" d="M16 22a3 3 0 1 1-6 0 3 3 0 1 1 6 0z"/><path style="fill:#79503c" d="M16 21a3 3 0 1 1-6 0 3 3 0 1 1 6 0z"/><path style="opacity:.2;fill:#fff" d="M14.389 6.32 14 7.646c2.152 2.007 6.457 3.647 10.19 3.308l.37-1.171c-1.091.093-3.767-.273-5.48-.781-1.839-.546-3.842-1.703-4.691-2.684z"/><path style="opacity:.3;fill:#1b65cf" d="M10 10.5a3.501 3.501 0 0 1 0 7 3.501 3.501 0 0 1 0-7z"/><path style="fill:#263742" d="M10.973 13.5c.068.996.04 1.435-.473 2 .036-.92.054-1.365.473-2z"/><path style="fill:#4a3025" d="M17.2 19.089s6.593-.88 7.677 2.904c.728 2.54-1.14 2.604-1.397 4.32-.258 1.717 1.72 1.28 1.72 1.28l-.179.382s-1.933.34-1.989-1.498c-.055-1.84 1.898-2.672.825-4.484-1.074-1.811-5.167-.75-5.167-.75z"/><path style="opacity:.1" d="M22 22a3 3 0 1 1-6 0 3 3 0 1 1 6 0z"/><path style="fill:#79503c" d="M22 21a3 3 0 1 1-6 0 3 3 0 1 1 6 0z"/></svg>
